X:4
T:Quick Step. RHu.004
S:R.Hughes MS,1823,Whitchurch,Shrops.
A:Whitchurch, Shropshire
Z:Neil Brookes 2006
M:2/4
L:1/8
Q:1/2=80
K:C
G|c2 ec|eg g2|fa d2|BdBG|\
c2 ec|egge|afdB|c2c:|!
|:c|d2 de|gedc|B2 dc|BdBG|\
c2 ec|egge|afdB|c2c:|

